X:167
T: Die Mordeltern
N: Q0085I
O: Osteuropa, Tschechoslowakei, Sudetenland, Kuhlaendchen
R: Ballade, Habgier, Mord, Reue, Selbstmord
M: 3/4
L: 1/8
K: G
D2 | DFG3A | _BB=F3
B | _BBA2G2 | D_E=F3
G | =F_ED2E2 | =F2D2z
_B | A_BA2G2 | F2G2

